newicons/kbank_tinh_tien.svg

<?xml version="1.0" encoding="UTF-8" standalone="no"?>
<svg
   viewBox="0 0 48 48"
   version="1.1"
   id="svg1"
   sodipodi:docname="kbank_tinh_tien.svg"
   inkscape:version="1.2.2 (b0a8486541, 2022-12-01)"
   xml:space="preserve"
   xmlns:inkscape="http://www.inkscape.org/namespaces/inkscape"
   xmlns:sodipodi="http://sodipodi.sourceforge.net/DTD/sodipodi-0.dtd"
   xmlns="http://www.w3.org/2000/svg"
   xmlns:svg="http://www.w3.org/2000/svg"><sodipodi:namedview
     id="namedview1"
     pagecolor="#505050"
     bordercolor="#eeeeee"
     borderopacity="1"
     inkscape:showpageshadow="0"
     inkscape:pageopacity="0"
     inkscape:pagecheckerboard="0"
     inkscape:deskcolor="#505050"
     inkscape:zoom="12.59534"
     inkscape:cx="16.672834"
     inkscape:cy="21.793775"
     inkscape:window-width="1912"
     inkscape:window-height="1054"
     inkscape:window-x="0"
     inkscape:window-y="0"
     inkscape:window-maximized="1"
     inkscape:current-layer="svg1"
     showgrid="false" /><defs
     id="defs1"><style
       id="style1">.a { fill:none;stroke:#fff;stroke-linecap:round;stroke-linejoin:round; }
</style></defs><g
     id="g1885"><g
       id="g1873"><path
         style="fill:none;stroke:#ffffff;stroke-width:1;stroke-linecap:round;stroke-linejoin:round;stroke-dasharray:none;stroke-opacity:1;stop-color:#000000"
         d="M 14.026208,16.432528 A 10.116549,10.116549 0 0 1 24,8.0095078 10.116549,10.116549 0 0 1 33.973612,16.431467"
         id="path1859" /><path
         style="fill:none;stroke:#ffffff;stroke-width:1;stroke-linecap:round;stroke-linejoin:round;stroke-dasharray:none;stroke-opacity:1;stop-color:#000000"
         d="m 20.087141,15.04492 1.998425,2.386073 5.709206,-6.407738"
         id="path1857" /></g><g
       id="g1877"><path
         style="fill:none;stroke:#ffffff;stroke-width:1;stroke-linecap:round;stroke-linejoin:round;stroke-dasharray:none;stroke-opacity:1;stop-color:#000000"
         d="M 9.3947368,5.5 H 38.605263 C 40.762947,5.5 42.5,7.2370526 42.5,9.3947368 V 38.605263 C 42.5,40.762947 40.762947,42.5 38.605263,42.5 H 9.3947368 C 7.2370526,42.5 5.5,40.762947 5.5,38.605263 V 9.3947368 C 5.5,7.2370526 7.2370526,5.5 9.3947368,5.5 Z"
         id="path1861" /><path
         style="fill:none;stroke:#ffffff;stroke-width:1;stroke-linecap:round;stroke-linejoin:round;stroke-dasharray:none;stroke-opacity:1;stop-color:#000000"
         d="m 42.257776,13.165598 -12.930554,5.281871 c -3.287763,1.342985 -7.366681,1.342985 -10.654444,0 L 5.7422236,13.165598"
         id="path1846" /></g></g></svg>

<?xml version="1.0" encoding="UTF-8"?><svg id="b" xmlns="http://www.w3.org/2000/svg" viewBox="0 0 48 48"><defs><style>.m{fill:none;stroke:#fff;stroke-linecap:round;stroke-linejoin:round;}</style></defs><g id="f"><g id="g"><path id="h" class="m" d="M14.0262,16.4325c.8259-4.8641,5.0401-8.423,9.9738-8.423,4.9333,0,9.1473,3.5583,9.9736,8.422"/><path id="i" class="m" d="M20.0871,15.0449l1.9984,2.3861,5.7092-6.4077"/></g><g id="j"><path id="k" class="m" d="M9.3947,5.5h29.2105c2.1577,0,3.8947,1.7371,3.8947,3.8947v29.2105c0,2.1577-1.7371,3.8947-3.8947,3.8947H9.3947c-2.1577,0-3.8947-1.7371-3.8947-3.8947V9.3947c0-2.1577,1.7371-3.8947,3.8947-3.8947Z"/><path id="l" class="m" d="M42.2578,13.1656l-12.9306,5.2819c-3.2878,1.343-7.3667,1.343-10.6544,0l-12.9306-5.2819"/></g></g></svg>
